assets/icons/award.svg

<svg width="25" height="25" viewBox="0 0 25 25" fill="none" xmlns="http://www.w3.org/2000/svg">
<path d="M7.64775 12.0841C7.73505 14.8361 9.9075 17.2963 12.6632 17.2963C15.4675 17.2963 17.5797 14.8795 17.6762 12.0792C17.6944 11.552 17.7042 11.0194 17.7042 10.4814C17.7042 8.29943 17.5585 6.07713 17.3201 4.10611C15.8225 3.77203 14.2823 3.66638 12.6632 3.66638C11.0442 3.66638 9.4729 3.7592 8.0063 4.10611C7.75505 6.06883 7.62225 8.29943 7.62225 10.4814C7.62225 11.0213 7.631 11.5555 7.64775 12.0841Z" fill="white"/>
<path d="M18.199 12.6664L18.1987 13.5236C18.2568 13.5236 18.3147 13.5177 18.3716 13.506L18.199 12.6664ZM7.1204 12.6635L6.94425 13.5024C7.0021 13.5145 7.06105 13.5206 7.12015 13.5206L7.1204 12.6635ZM13.5163 17.307C13.5163 16.8337 13.1326 16.4499 12.6592 16.4499C12.1858 16.4499 11.802 16.8337 11.802 17.307H13.5163ZM11.802 21.6664C11.802 22.1398 12.1858 22.5236 12.6592 22.5236C13.1326 22.5236 13.5163 22.1398 13.5163 21.6664H11.802ZM9.19121 20.8093C8.71786 20.8093 8.3341 21.193 8.3341 21.6664C8.3341 22.1398 8.71786 22.5236 9.19121 22.5236V20.8093ZM16.1202 22.5236C16.5936 22.5236 16.9773 22.1398 16.9773 21.6664C16.9773 21.193 16.5936 20.8093 16.1202 20.8093V22.5236ZM17.3201 4.10614L18.1711 4.00322L18.0983 3.40151L17.5067 3.26955L17.3201 4.10614ZM8.0063 4.10614L7.809 3.27201L7.23145 3.40862L7.1561 3.9973L8.0063 4.10614ZM20.8095 7.65386C20.8095 8.82416 20.4279 9.92006 19.7855 10.7054L21.1124 11.7908C22.0295 10.6696 22.5238 9.17971 22.5238 7.65386H20.8095ZM19.7855 10.7054C19.2813 11.3218 18.6601 11.6965 18.0263 11.8268L18.3716 13.506C19.4313 13.288 20.3862 12.6786 21.1124 11.7908L19.7855 10.7054ZM18.1992 11.8093L7.1206 11.8064L7.12015 13.5206L18.1987 13.5236L18.1992 11.8093ZM7.2965 11.8247C6.6664 11.6923 6.0492 11.3184 5.54782 10.7054L4.22086 11.7907C4.94307 12.6737 5.8915 13.2813 6.94425 13.5024L7.2965 11.8247ZM5.54782 10.7054C4.90552 9.92006 4.52382 8.82416 4.52382 7.65386H2.80953C2.80953 9.17976 3.30385 10.6696 4.22086 11.7907L5.54782 10.7054ZM4.52382 7.65386L4.5238 5.49823L2.80951 5.49825L2.80953 7.65386H4.52382ZM4.5238 5.49823C4.5238 5.61244 4.44874 5.71241 4.34022 5.74471L3.85127 4.10165C3.23359 4.28546 2.8095 4.85322 2.80951 5.49825L4.5238 5.49823ZM4.34022 5.74471C9.77319 4.12788 15.5601 4.12788 20.993 5.74471L21.482 4.10167C15.73 2.38986 9.60331 2.38985 3.85127 4.10165L4.34022 5.74471ZM20.993 5.74471C20.8846 5.71246 20.8095 5.61256 20.8095 5.49824H22.5238C22.5238 4.85311 22.0997 4.28543 21.482 4.10167L20.993 5.74471ZM20.8095 5.49824V7.65386H22.5238V5.49824H20.8095ZM11.802 17.307V21.6664H13.5163V17.307H11.802ZM9.19121 22.5236H16.1202V20.8093H9.19121V22.5236ZM6.79105 12.1113C6.8905 15.247 9.36955 18.1535 12.6632 18.1535V16.4392C10.4455 16.4392 8.5796 14.4254 8.50445 12.057L6.79105 12.1113ZM12.6632 18.1535C16.0093 18.1535 18.4233 15.2864 18.5329 12.1088L16.8196 12.0497C16.7361 14.4726 14.9257 16.4392 12.6632 16.4392V18.1535ZM18.5329 12.1088C18.5514 11.5724 18.5613 11.0299 18.5613 10.4814H16.8471C16.8471 11.0091 16.8375 11.5318 16.8196 12.0497L18.5329 12.1088ZM18.5613 10.4814C18.5613 8.26351 18.4134 6.00681 18.1711 4.00322L16.4692 4.20905C16.7036 6.14746 16.8471 8.33541 16.8471 10.4814H18.5613ZM17.5067 3.26955C15.9256 2.91687 14.3173 2.80927 12.6632 2.80927V4.52356C14.2473 4.52356 15.7193 4.62726 17.1335 4.94272L17.5067 3.26955ZM12.6632 2.80927C11.0179 2.80927 9.37025 2.90273 7.809 3.27201L8.2036 4.94026C9.5756 4.61574 11.0705 4.52356 12.6632 4.52356V2.80927ZM7.1561 3.9973C6.8997 6.00016 6.76515 8.26741 6.76515 10.4814H8.4794C8.4794 8.33151 8.6104 6.13751 8.8565 4.21498L7.1561 3.9973ZM6.76515 10.4814C6.76515 11.0305 6.774 11.5738 6.79105 12.1113L8.50445 12.057C8.48795 11.5373 8.4794 11.0121 8.4794 10.4814H6.76515Z" fill="white"/>
</svg>

<svg xmlns="http://www.w3.org/2000/svg" width="25" height="25" fill="none" viewBox="0 0 25 25"><path fill="#fff" d="M7.648 12.084c.087 2.752 2.26 5.212 5.015 5.212 2.804 0 4.917-2.416 5.013-5.217a46 46 0 0 0 .028-1.598c0-2.182-.146-4.404-.384-6.375-1.498-.334-3.038-.44-4.657-.44s-3.19.093-4.657.44a51.5 51.5 0 0 0-.358 7.978"/><path fill="#fff" d="M18.199 12.666v.858a1 1 0 0 0 .173-.018zM7.12 12.664l-.176.838a1 1 0 0 0 .176.019zm6.396 4.643a.857.857 0 0 0-1.714 0zm-1.714 4.36a.857.857 0 0 0 1.714 0zm-2.61-.858a.857.857 0 1 0 0 1.715zm6.928 1.715a.857.857 0 0 0 0-1.715zm1.2-18.418.851-.103-.073-.601-.591-.132zm-9.314 0-.197-.834-.578.137-.075.588zM20.81 7.654c0 1.17-.382 2.266-1.024 3.051l1.326 1.086c.918-1.121 1.412-2.611 1.412-4.137zm-1.024 3.051c-.505.617-1.126.992-1.76 1.122l.346 1.679c1.06-.218 2.014-.827 2.74-1.715zm-1.587 1.104-11.078-.003v1.715l11.078.003zm-10.903.016c-.63-.133-1.247-.507-1.748-1.12L4.22 11.791c.722.883 1.67 1.49 2.723 1.711zm-1.748-1.12c-.642-.785-1.024-1.88-1.024-3.051H2.81c0 1.526.494 3.016 1.41 4.137zM4.524 7.654V5.498H2.81v2.156zm0-2.156a.26.26 0 0 1-.184.247l-.489-1.643A1.46 1.46 0 0 0 2.81 5.498zm-.184.247a29.2 29.2 0 0 1 16.653 0l.489-1.643a30.9 30.9 0 0 0-17.63 0zm16.653 0a.26.26 0 0 1-.183-.247h1.714c0-.645-.424-1.213-1.042-1.396zm-.183-.247v2.156h1.714V5.498zm-9.008 11.809v4.36h1.714v-4.36zm-2.61 5.217h6.928v-1.715H9.191zM6.79 12.11c.1 3.136 2.579 6.043 5.872 6.043v-1.715c-2.218 0-4.083-2.014-4.159-4.382zm5.872 6.043c3.346 0 5.76-2.868 5.87-6.045l-1.713-.06c-.084 2.424-1.894 4.39-4.157 4.39zm5.87-6.045q.027-.806.028-1.628h-1.714q0 .791-.027 1.569zm.028-1.628c0-2.217-.148-4.474-.39-6.478l-1.702.206a53 53 0 0 1 .378 6.272zm-1.053-7.21c-1.581-.353-3.19-.46-4.844-.46v1.714c1.584 0 3.056.103 4.47.419zm-4.844-.46c-1.645 0-3.293.093-4.854.462l.395 1.668c1.372-.324 2.866-.416 4.46-.416zM7.156 3.996a52 52 0 0 0-.39 6.484h1.713c0-2.15.131-4.343.378-6.266zm-.39 6.484q0 .825.025 1.63l1.713-.054a50 50 0 0 1-.025-1.576z"/></svg>
